X: 29181
T: New Carpet, The
R: reel
M: 4/4
K: Gmajor
|:GDGB ADAB|GDGB A2GF|GdBG ecAc|BAGB A2 GF|
GDGB ADAB|GDGB A2Bc|dgec dB (3GAB|1 AGFA G2 (3DEF:|2 AGFA G2Bc||
|:dGdG eGcG|dGcB A2Bc|dGdGeGgG|gafe d2Bc|
dGgG eGgG|dGcB A2Bc|dgec dB (3GAB|1 AGFA G2Bc:|2 AGFA G4||

